!!!OTL: Die Nachtpatrouille
!!!OTL-incipit: Schoenster Schatz erlaub es mir
!!!ARE: Europa, Mitteleuropa, Deutschland, Baden, Freiburg i. Brsg.
!!!SCT: D0100
!!!TXL: @@DE
!!!YEM: Copyright 1995, estate of Helmut Schaffrath.
**kern	**text
*ICvox	*
*M4/4	*
*met(c)	*
*k[f#]	*
*G:	*
{4.d	Schönster
8c	.
=1	=1
4B	Schatz
4d	erlaub
4g	.
4b/	es
=2	=2
(>2b/	mir
2a)	.
=3	=3
2r	.
2r}	.
=4	=4
{2.a	eine
4g	.
=5	=5
4f#	kleine
4e	.
4d	Viertelstund
4f#	.
=6	=6
2g}	.
{4.d	deinen
8c	.
=7	=7
4B	Rosenmund
4d	.
4g	.
4b/	zu
=8	=8
(>4b/	küssen
4a)	.
2a	.
=9	=9
2r	.
2r}	.
=10	=10
{2.a	Eh'
4g	die
=11	=11
4f#	Nachtpatruilla
4e	.
4d	.
4f#	.
=12	=12
(4g	kümmet
4a	.
4b/)	.
4r	.
=13	=13
2r}	.
{4g	Eh
8b/L	die
8ddJ	.
=14	=14
2dd/	Nacht-
2b/	.
=15	=15
(>4dd/	-pa-
4cc/)	.
(>4b/	-truilla
4cc/)	.
=16	=16
2b/}	kummet.
{4g/	Eh
8b/L	die
8ddJ	.
=17	=17
2dd/	Nacht-
2b/	.
=18	=18
(>4dd/	-pa-
4cc/)	.
(>4b/	-truilla
4cc/)	.
=19	=19
2b/}	kümmet.
==	==
!!!AGN: Soldaten - Lied
!! Pause in der vierten Zeile eingefuegt; Inzipit = Variante zum Lied
!!!ONB: ESAC (Essen Associative Code) Database: DVA
!!!AMT: simple quadruple
!!!AIN: vox
!!!EED: Helmut Schaffrath
!!!EEV: 1.0
!!!YOR: https://freidok.uni-freiburg.de/data/150373
!!!EFL: A 107 101 - 107 800 Soldatenlieder (p. 388)
!!!ENC: Anna Maria Matuszewska
!!!EEV: 2025/03/31
*-	*-
